src/images/Pdf-icon.svg

<svg width="84" height="84" viewBox="0 0 84 84" fill="none" xmlns="http://www.w3.org/2000/svg">
<path d="M78.75 47.25V42H63V68.25H68.25V57.75H76.125V52.5H68.25V47.25H78.75Z" fill="#3E6C5F"/>
<path d="M49.875 68.25H39.375V42H49.875C51.9629 42.0021 53.9648 42.8324 55.4412 44.3088C56.9176 45.7852 57.7479 47.7871 57.75 49.875V60.375C57.7479 62.4629 56.9176 64.4648 55.4412 65.9412C53.9648 67.4176 51.9629 68.2479 49.875 68.25ZM44.625 63H49.875C50.571 62.9993 51.2383 62.7225 51.7304 62.2304C52.2225 61.7383 52.4993 61.071 52.5 60.375V49.875C52.4993 49.179 52.2225 48.5117 51.7304 48.0196C51.2383 47.5275 50.571 47.2507 49.875 47.25H44.625V63Z" fill="#3E6C5F"/>
<path d="M28.875 42H15.75V68.25H21V60.375H28.875C30.2667 60.3729 31.6009 59.8191 32.585 58.835C33.5691 57.8509 34.1229 56.5167 34.125 55.125V47.25C34.1236 45.858 33.57 44.5235 32.5858 43.5392C31.6015 42.555 30.267 42.0014 28.875 42ZM21 55.125V47.25H28.875L28.8776 55.125H21Z" fill="#3E6C5F"/>
<path d="M57.75 36.75V26.25C57.7593 25.905 57.6937 25.5621 57.5577 25.2449C57.4218 24.9277 57.2187 24.6437 56.9625 24.4125L38.5875 6.0375C38.3564 5.78116 38.0724 5.578 37.7552 5.44204C37.438 5.30608 37.095 5.24056 36.75 5.25H10.5C9.10889 5.25416 7.77595 5.80862 6.79228 6.79228C5.80861 7.77595 5.25415 9.10889 5.25 10.5V73.5C5.25 74.8924 5.80312 76.2277 6.78769 77.2123C7.77226 78.1969 9.10761 78.75 10.5 78.75H52.5V73.5H10.5V10.5H31.5V26.25C31.5042 27.6411 32.0586 28.9741 33.0423 29.9577C34.0259 30.9414 35.3589 31.4958 36.75 31.5H52.5V36.75H57.75ZM36.75 26.25V11.55L51.45 26.25H36.75Z" fill="#3E6C5F"/>
</svg>

<?xml version="1.0" encoding="utf-8"?>
<!-- Generator: Adobe Illustrator 25.2.0, SVG Export Plug-In . SVG Version: 6.00 Build 0)  -->
<svg version="1.1" id="Layer_1" xmlns="http://www.w3.org/2000/svg" xmlns:xlink="http://www.w3.org/1999/xlink" x="0px" y="0px"
	 viewBox="0 0 84 84" style="enable-background:new 0 0 84 84;" xml:space="preserve">
<style type="text/css">
	.st0{fill:#3BB4CA;}
</style>
<path class="st0" d="M78.75,47.25V42H63v26.25h5.25v-10.5h7.88V52.5h-7.88v-5.25H78.75z"/>
<path class="st0" d="M49.88,68.25h-10.5V42h10.5c2.09,0,4.09,0.83,5.57,2.31s2.31,3.48,2.31,5.57v10.5c0,2.09-0.83,4.09-2.31,5.57
	S51.96,68.25,49.88,68.25z M44.62,63h5.25c0.7,0,1.36-0.28,1.86-0.77s0.77-1.16,0.77-1.86v-10.5c0-0.7-0.28-1.36-0.77-1.86
	s-1.16-0.77-1.86-0.77h-5.25V63z"/>
<path class="st0" d="M28.88,42H15.75v26.25H21v-7.88h7.88c1.39,0,2.73-0.56,3.71-1.54c0.98-0.98,1.54-2.32,1.54-3.71v-7.88
	c0-1.39-0.56-2.73-1.54-3.71C31.6,42.56,30.27,42,28.88,42z M21,55.12v-7.88h7.88l0,7.88H21z"/>
<path class="st0" d="M57.75,36.75v-10.5c0.01-0.34-0.06-0.69-0.19-1.01c-0.14-0.32-0.34-0.6-0.6-0.83L38.59,6.04
	c-0.23-0.26-0.52-0.46-0.83-0.6s-0.66-0.2-1.01-0.19H10.5c-1.39,0-2.72,0.56-3.71,1.54C5.81,7.78,5.25,9.11,5.25,10.5v63
	c0,1.39,0.55,2.73,1.54,3.71c0.98,0.98,2.32,1.54,3.71,1.54h42V73.5h-42v-63h21v15.75c0,1.39,0.56,2.72,1.54,3.71
	c0.98,0.98,2.32,1.54,3.71,1.54H52.5v5.25H57.75z M36.75,26.25v-14.7l14.7,14.7H36.75z"/>
</svg>
